X: 1
T: G\aangl\aat efter Skommar Far - Leksand
O: Sweden
R: g\aangl\aat, snoa
Z: 2007 John Chambers <jc@trillian.mit.edu>
S: handwritten MS of unknown origin labelled "S-3-A-21"
M: C|
L: 1/8
K: A
Ac \
| "A"e2c2   e2a2 | "A"efed c2Bc \
|1,3 "E7"{c}d2dc B2B2 | "E7"efed "A"c2 \
:|2,4 "E7"d2dB EGBG | "A"A6 :|
|: Ac \
| "A"e2e2 "D"f3f | "A"efed c2Bc \
|1,3 "E7"{c}d2dc B2B2 | "E7"efed "A"cE \
:|2,4 "E7"d2dB EGBG | "A"A6 :|
